X: 122
T:Valentine's Tempo di Minuetto. CJF.122
M:3/8
L:1/8
Q:30
C:Valentine
S:C.J.Fox MS, 1829/33, Beverley,E.Yorks.
R:Minuet
O:England
A:East Yorkshire
B:Kidson Coll.Mitchell Lib.M1805
N:"by Valentine" is in title line. - PJH.
Z:vmp.P J Headford 2000
K:G
d|g2d|dBB|BGG|G2(d/c/)|Bdg|cea|DcB|(BA) d|!
g2b|gea|fdd|d2A|ddd|d2A|dd/d/d/d/|d2:|!
|:a|d'2a|d'2a|fda|fd d|g2d|g2d|BGd|BG B|!
e2B|e2B|GEB|GE B|E/F/G/F/G/E/|BGE|BGE|B2g|!
bbb|b2B|cc/c/c/c/|c2c|aaa|a2A|BB/B/B/B/|B2d|!
g2d|BGB|d2A|FDD|GGG|G2D|GG/G/G/G/|G2:|]
